X:3
T:Summer is icumen in (Round)
C:anon.
O:England
R:Round
M:6/8
L:1/8
K:Cmaj
V:5
%%MIDI program 65
C,3D,3|C,3D,2E,|G,3F,3|G,3 z2 z ||C,3D,3|C,3D,2E,|G,3F,3|G,3 z2 z ||
C,3D,3|C,3D,2E,|G,3F,3|G,3 z2 z ||C,3D,3|C,3D,2E,|G,3F,3|G,3 z2 z ||
C,3D,3|C,3D,2E,|G,3F,3|G,3 z2 z ||C,3D,3|C,3D,2E,|G,3F,3|G,3 z2 z ||
C,3D,3|C,3D,2E,|G,3F,3|G,3 z2 z ||C,3D,3|C,3D,2E,|G,3F,3|G,3 z2 z ||
%
V:6
%%MIDI program 69
z6| z6 |C3D3|C3D2E|G3F3|G3 z2 z ||C3D3|C3D2E|G3F3|G3 z2 z ||
C3D3|C3D2E|G3F3|G3 z2 z ||C3D3|C3D2E|G3F3|G3 z2 z ||
C3D3|C3D2E|G3F3|G3 z2 z ||C3D3|C3D2E|G3F3|G3 z2 z ||
C3D3|C3D2E|G3F3|G3 z2 z ||C3D3|C3D2E|G3F3|G3 z2 z ||
%
V:1
%%MIDI program 65
z6|z6|z6|z6 |c2 B A2 B|c2 c BAG|E2 E F2 D|E3 z2 z|
C2 E D2 F|E2 E D2 C|E2 G A2 A|G3 z2 z|
c3 A3|c3 z2 z|G2 E F2 D|E2 G F2 E|
C2 E D2 B,|C3 z2 z|E2 E D2 F|G2 G A2 B|
c2 B A2 B|c3 z2 z|G3 A3|G3 F2E|
C2 E F2 D|E3 F2 G|E2 G D2 B,|C3 z2 z ||
%
V:2
%%MIDI program 41
z6|z6|z6| z6 |z6| z6 |c2 B A2 B|c2 c BAG|E2 E F2 D|E3 z2 z|
C2 E D2 F|E2 E D2 C|E2 G A2 A|G3 z2 z|
c3 A3|c3 z2 z|G2 E F2 D|E2 G F2 E|
C2 E D2 B,|C3 z2 z|E2 E D2 F|G2 G A2 B|
c2 B A2 B|c3 z2 z|G3 A3|G3 F2E|
C2 E F2 D|E3 F2 G|E2 G D2 B,|C3 z2 z ||
%
V:3
%%MIDI program 68
z6|z6|z6| z6 |z6| z6 |z6| z6 |c2 B A2 B|c2 c BAG|E2 E F2 D|E3 z2 z|
C2 E D2 F|E2 E D2 C|E2 G A2 A|G3 z2 z|
c3 A3|c3 z2 z|G2 E F2 D|E2 G F2 E|
C2 E D2 B,|C3 z2 z|E2 E D2 F|G2 G A2 B|
c2 B A2 B|c3 z2 z|G3 A3|G3 F2E|
C2 E F2 D|E3 F2 G|E2 G D2 B,|C3 z2 z ||
%
V:4
%%MIDI program 70
z6|z6|z6| z6 |z6| z6 |z6| z6 |z6| z6 |c2 B A2 B|c2 c BAG|E2 E F2 D|E3 z2 z|
C2 E D2 F|E2 E D2 C|E2 G A2 A|G3 z2 z|
c3 A3|c3 z2 z|G2 E F2 D|E2 G F2 E|
C2 E D2 B,|C3 z2 z|E2 E D2 F|G2 G A2 B|
c2 B A2 B|c3 z2 z|G3 A3|G3 F2E|
C2 E F2 D|E3 F2 G|E2 G D2 B,|C3 z2 z ||


